X: 1751
T: The "No, Not That One" Polka
B: australian traditional tunes wiki
M:2/4
L:1/16
R: Polka
Q: 1/4=100
K:D
V:1 
F2|:"D"Afed "A"c2G2|(3BdB "D"Ad FADF|1d2cd "A7"cBEG|B2A2 "D"F3G:|2d2cd "A"efec|"D"d2d2d4||
|:"D"F2G2 A3A|B2 (3ABA F3A|f2"A"ec G2 (3ABc|e2 "D"(3dfd F4|
F2G2 A3A|"A"B2 "D"(3ABA "A"E4|efed cBAB|1"D"e2d2d4:|2"D"e2d2 d3z||
% abcbook-tune_id 6342d53a248018d5f890252c


% abcbook-boost 0
% abcbook-tablature 
% abcbook-transpose 
% abcbook-lastupdated 1665324381760
% abcbook-soundfonts 
% abcbook-repeats 1
% NFF Book 2008

